V6_wwwroot/ptn/core/icons/fa6/svgs/solid/file-powerpoint.svg

<svg xmlns="http://www.w3.org/2000/svg" viewBox="0 0 384 512"><!--! Font Awesome Free 6.7.2 by @fontawesome - https://fontawesome.com License - https://fontawesome.com/license/free (Icons: CC BY 4.0, Fonts: SIL OFL 1.1, Code: MIT License) Copyright 2024 Fonticons, Inc. --><path d="M64 0C28.7 0 0 28.7 0 64L0 448c0 35.3 28.7 64 64 64l256 0c35.3 0 64-28.7 64-64l0-288-128 0c-17.7 0-32-14.3-32-32L224 0 64 0zM256 0l0 128 128 0L256 0zM136 240l68 0c42 0 76 34 76 76s-34 76-76 76l-44 0 0 32c0 13.3-10.7 24-24 24s-24-10.7-24-24l0-56 0-104c0-13.3 10.7-24 24-24zm68 104c15.5 0 28-12.5 28-28s-12.5-28-28-28l-44 0 0 56 44 0z"/></svg>

<svg xmlns="http://www.w3.org/2000/svg" viewBox="0 0 384 512"><!--! Font Awesome Free 6.4.2 by @fontawesome - https://fontawesome.com License - https://fontawesome.com/license/free (Icons: CC BY 4.0, Fonts: SIL OFL 1.1, Code: MIT License) Copyright 2023 Fonticons, Inc. --><path d="M64 0C28.7 0 0 28.7 0 64V448c0 35.3 28.7 64 64 64H320c35.3 0 64-28.7 64-64V160H256c-17.7 0-32-14.3-32-32V0H64zM256 0V128H384L256 0zM136 240h68c42 0 76 34 76 76s-34 76-76 76H160v32c0 13.3-10.7 24-24 24s-24-10.7-24-24V368 264c0-13.3 10.7-24 24-24zm68 104c15.5 0 28-12.5 28-28s-12.5-28-28-28H160v56h44z"/></svg>
